X:43
T:Godess March,3parts. JNu.44
M:2/4
L:1/8
Q:1/4=110
S:James Nuttall MS,c1830?,Rossendale,East Lancs.
R:.March
O:England
A:East Lancashire
N:Wrongly numbered 43 inMS
Z:vmp.Manchester Morris Men
V:1
V:2
V:3 clef=bass
K:D
[V:1] |: DF Ad | cB A2 | Ac eg | fe d2 |\
.f.f .g.g | .e.e .f.f | .d.d .e.e | .c.c d2 😐
[V:2] |: AA AG | FF F2 | FA ce | dcd2 |\
.d.d .e.e | .c.c .d.d | .B.B .c.A | .F.E.F2 😐
[V:3] |: D,D, D,D, | A,,A,, A,,2 | D,D, F,G, | A,A,, D,2 |\
.D.D .G,.G, | .A,.A, .D,.D, | .G,.G, .A,.A, | .A,,.A,,D,2 😐
%
[V:1] |: e2 d/c/B/A/ | ee cA | a2 g/f/e/d/ | aa fd |\
.f.f .g.g | .e.e .f.f | .d.d .e.e | .c.c d2 😐
[V:2] |: c2 e/d/c/B/ | cc AA | f2g/f/e/d/ | ff dd |\
.d.d .e.e | .c.c .d.d | .B.B .c.c | AAF2 😐
[V:3] |: A,2A,2 | A,,A,, A,,A,, | D,D, D,D, | A,A,D,D, |\
.D.D .G,.G, | .A,.A, .D,.D, | .G,.G, .A,.A, | A,,A,, D,2 😐
%
[V:1] |: d2 fa | a2 gf | ge dc | d/c/d/e/ dA |\
d2 fa | a2 gf | ge dc | d2 D2 😐
[V:2] |: [F2A2d2] df | f2ed | eG FE | F/E/F/G/F2 |\
d2df | f2ed | eG FE | F2F2 😐
[V:3] |: D,2D,D, | D,2E,D, | G,G, A,A,, | D,2D,D, |\
D,2F,D, | D,2E,D, | G,E, A,A,, | D,2D,2 😐
%
[V:1] |: AA AG/A/ | BB B2 | c/d/e/f/ g/e/d/c/ | d/c/d/e/ dd |\
AA AG/A/ | BB B2 | c/d/e/f/ g/f/e/d/ | dd d2 😐
[V:2] |: FF FE/F/ | GGG2 | A/B/c/d/ e/c/B/A/ | F/E/F/G/ FF |\
FF FE/F/ | GGG2 | A/B/c/d/ A/G/F/E/ | FFF2 😐
[V:3] |: D,D, D,D, | G,,G,,G,,2 | A,,E, A,E, | A,A,,D,2 |\
D,D, D,D, | G,,G,,G,,2 | F,G, A,A,, | D,D,D,2 😐

